X:3350
T:Connie Walsh's
M:12/8
L:1/8
R:Slide
K:D maj
|:Bcd Bcdc2BA2A|Bcde2fg3f2g|a2f gfef2dA3|Bcde2cd3d3:|:a2f gfef2d AB
A|Bcde2fg3f2g|agf gfef2dA2A|Bcde2cd3d3:|


